docs/.gitbook/assets/icon-heart-16@dark.svg

<svg width="32" height="32" viewBox="0 0 16 16" fill="none" xmlns="http://www.w3.org/2000/svg">
<rect x="0" y="0" width="16" height="16" fill="#181c1f"/>
<path fill-rule="evenodd" clip-rule="evenodd" d="M8.00003 3.66854C6.78778 1.92445 4.45548 1.45573 2.7072 2.69898C0.934816 3.95937 0.480091 6.47547 1.63917 8.33004C1.93063 8.79639 2.46705 9.37498 3.04842 9.94509C3.64533 10.5304 4.34372 11.1584 5.00509 11.7322C5.66762 12.307 6.29908 12.8327 6.76452 13.2145C6.9974 13.4055 7.18911 13.5607 7.32284 13.6685C7.38971 13.7223 7.44211 13.7643 7.47793 13.7929L7.51899 13.8257L7.52971 13.8343L7.53254 13.8365L7.5333 13.8371L7.53352 13.8373C7.53359 13.8373 7.53363 13.8374 8.00003 13.25L7.53363 13.8374C7.80675 14.0542 8.19331 14.0542 8.46642 13.8374L8.00003 13.25C8.46642 13.8374 8.46647 13.8373 8.46653 13.8373L8.46675 13.8371L8.46752 13.8365L8.47034 13.8343L8.48106 13.8257L8.52212 13.7929C8.55794 13.7643 8.61034 13.7223 8.67722 13.6685C8.81094 13.5607 9.00265 13.4055 9.23553 13.2145C9.70097 12.8327 10.3324 12.307 10.995 11.7322C11.6563 11.1584 12.3547 10.5304 12.9516 9.94509C13.533 9.37498 14.0694 8.79639 14.3609 8.33004C15.52 6.47547 15.0652 3.95937 13.2929 2.69898C11.5446 1.45573 9.21228 1.92445 8.00003 3.66854ZM8.00003 12.2868C7.91465 12.2174 7.81938 12.1396 7.71576 12.0547C7.25736 11.6787 6.6371 11.1623 5.98809 10.5992C5.33791 10.0351 4.66491 9.42939 4.09866 8.87411C3.51688 8.3036 3.09836 7.83457 2.91118 7.53506C2.15566 6.3262 2.47697 4.7033 3.5765 3.9214C4.63768 3.16676 6.0805 3.44628 6.82386 4.60789L7.33376 5.5944C7.46254 5.84354 7.71957 6.00002 8.00003 6.00002C8.28049 6.00002 8.53751 5.84354 8.66629 5.5944L9.17619 4.60789C9.91956 3.44628 11.3624 3.16676 12.4236 3.9214C13.5231 4.7033 13.8444 6.3262 13.0889 7.53506C12.9017 7.83457 12.4832 8.3036 11.9014 8.87411C11.3351 9.42939 10.6621 10.0351 10.012 10.5992C9.36295 11.1623 8.74269 11.6787 8.2843 12.0547C8.18067 12.1396 8.0854 12.2174 8.00003 12.2868Z" fill="#fff"/>
</svg>

<svg xmlns="http://www.w3.org/2000/svg" width="32" height="32" fill="none" viewBox="0 0 16 16"><path fill="#181c1f" d="M0 0h16v16H0z"/><path fill="#fff" fill-rule="evenodd" d="M8 3.669c-1.212-1.745-3.545-2.213-5.293-.97C.935 3.959.48 6.475 1.64 8.33c.292.466.828 1.045 1.41 1.615a45 45 0 0 0 1.956 1.787 85 85 0 0 0 2.473 2.06l.041.034.01.008.004.002v.001L8 13.25l-.466.587a.75.75 0 0 0 .932 0L8 13.25l.467.587.003-.003.011-.008.041-.033a57 57 0 0 0 .714-.578 85 85 0 0 0 1.759-1.483 45 45 0 0 0 1.957-1.787c.581-.57 1.117-1.149 1.409-1.615 1.159-1.855.704-4.37-1.068-5.631-1.748-1.243-4.08-.775-5.293.97m0 8.618-.284-.232a83 83 0 0 1-1.728-1.456 44 44 0 0 1-1.89-1.725c-.581-.57-1-1.04-1.187-1.339-.755-1.209-.434-2.832.665-3.614 1.062-.754 2.504-.475 3.248.687l.51.986a.75.75 0 0 0 1.332 0l.51-.986c.744-1.162 2.186-1.441 3.248-.687 1.1.782 1.42 2.405.665 3.614-.187.3-.606.769-1.188 1.34a44 44 0 0 1-1.889 1.724A83 83 0 0 1 8 12.287" clip-rule="evenodd"/></svg>
